X:1
T:“Thine Inheritance”
T:“Thine Inheritance”
T:Grant S. Pollock, arr. Henry L. Gilmour
T:Grant S. Pollock, 1906
T:Public Domain Courtesy of the Cyber Hymnal™
C:Grant S. Pollock, arr. Henry L. Gilmour
Z:Public Domain
Z:Courtesy of the Cyber Hymnal™
%%score ( 1 2 ) ( 3 4 )
L:1/8
Q:1/4=95
M:6/8
K:G
V:1 treble 
V:2 treble 
V:3 bass 
V:4 bass 
V:1
 D | [DG]2 [GB] [Gd]2 [DG] | (BA)[DF] [DG]2 E | [CE]2 [CE] [EG]2 [_EA] [DB]3- [DB]2 [Gd] | %4
w: 1.~O|tremb- ling soul, thy|Lord * is near, To|lead thee all the way, * A-|
w: 2.~Thy|por- tion by thy|Fa- * ther’s hand Has|been pre- pared for thee; * Go|
w: 3.~Thy|God shall gird thee|with * His might, To|con- quer ev- ery foe; * The|
w: 4.~Thy|soul shall on His|boun- * ty feed, Ex-|haust- less is the store; * There’s|
 [Fd]2 [Fc] [FA]2 [Ac] | [GB]2 [DG] D2 D | [CE]2 [CB] [CA]2 [DG] | [DG]6 || %8
w: bove the mists of|doubt and fear, Let|faith pre- vail to-|day.|
w: up at once, “pos-|sess the land,” And|thine ’twill sure- ly|be.|
w: en- e- my shall|take his flight, And|vic- tory thou shalt|know.|
w: full sup- ply for|ev- ery need, A-|bun- dance ev- er-|more.|
"^Refrain" [Gd][Gd][Gd] [GB][DA][DG] | [Ge]6 | [Gd][Ge][Gd] [GB][DA][^CG] | [DA]6 | %12
w: ||||
w: That have I giv- en to|thee,|That have I giv- en to|thee;|
w: ||||
w: ||||
 [Gd]2 [Gd] [GB][DA][DG] | [Ec]2 [Ge] [Gd]3 | [DG][DA][GB] [Ac]<!fermata![GB][DA] | [DG]3- [DG]2 |] %16
w: ||||
w: Ev- ery place where thy|foot shall tread,|That have I giv- en to|thee. *|
w: ||||
w: ||||
V:2
 D | x6 | D2 x2 E x | x12 | x6 | x3 D2 D | x6 | x6 || x6 | x6 | x6 | x6 | x6 | x6 | x6 | x5 |] %16
V:3
 [G,B,] | [G,B,]2 [G,D] [G,B,]2 [G,B,] | (G,F,)[D,C] [G,B,]2 [B,,G,] | %3
 [C,G,]2 [C,G,] [C,C]2 [C,G,] G,3- G,2 [G,B,] | [D,A,]2 [D,A,] [D,D]2 [D,D] | %5
 [G,D]2 [G,B,] [G,B,]2 [B,,G,] | [C,G,]2 [C,E,] [D,F,]2 [G,,C] | [G,,B,]6 || %8
 [G,B,][G,B,][G,B,] [G,D][G,C][G,B,] | [G,B,]3 [C,C]3 | [G,B,][G,C][G,B,] [G,D][F,A,][E,A,] | %11
 F,3 C3 | [G,B,]2 [G,B,] D[G,C][G,B,] | [C,G,]2 [C,C] [G,B,]3 | [D,B,][D,C][D,D] [D,E]<[D,D][D,C] | %15
 [G,,B,]3- [G,,B,]2 |] %16
V:4
 x | x6 | D,2 x4 | x6 G,3- G,2 x | x6 | x6 | x6 | x6 || x6 | x6 | x6 | D,6 | x6 | x6 | x6 | x5 |] %16

